X:195
T:Polska ur Sven Donats notbok (Ma5-195)
C:Sven Donat
R:Polska
O:Småland
B:Sven Donats notbok
B:http://www.smus.se/earkiv/fmk/browselarge.php?lang=sw&katalogid=Ma+5&bildnr=00196
Z:Christian Fürst
M:3/4
L:1/16
K:Am
|:A2AB c2cd e2^f^g | a4 a2ba =g2=fe | g4 g2fe d2ef |e4 e2c2A2B2 | 
c4 c2BA ^G2AB | A4 E4 A,4 :| |: {B}c4 A2Bc B2A^G | A2Bc B2A^G A2E2 | 
{B}c4  A2Bc B2A^G | ABcd e4 {ef}g4 | f2df (e2c2)(B2A2) | cBA^G A6 A2 :|

